Phone repair/img/display-broken-phone-icon.svg

<svg width="30" height="30" viewBox="0 0 30 30" fill="none" xmlns="http://www.w3.org/2000/svg">
<g clip-path="url(#clip0_51_614)">
<path d="M21.4284 0.000488281H8.57166C7.39099 0.000488281 6.42888 0.962597 6.42888 2.14327V13.9286C6.42888 14.2843 6.60673 14.6164 6.90029 14.8157C7.08028 14.9378 7.28813 15 7.50027 15C7.63526 15 7.77026 14.9742 7.89883 14.9228L12.8101 12.9579L16.6649 14.8842C16.9371 15.0192 17.2564 15.0321 17.5413 14.9207L22.8983 12.7779C23.3054 12.6172 23.5711 12.2251 23.5711 11.7858V2.14327C23.5711 0.962597 22.6112 0.000488281 21.4284 0.000488281ZM21.4284 11.0615L17.1899 12.7543L13.3372 10.828C13.1851 10.753 13.0222 10.7144 12.8572 10.7144C12.7222 10.7144 12.5872 10.7401 12.4587 10.7915L8.57166 12.3472V4.28605H21.4284V11.0615Z" fill="#FF005C"/>
<path d="M23.0997 15.1843C22.8062 14.985 22.4312 14.9443 22.1012 15.0771L17.1899 17.0399L13.3372 15.1136C13.0651 14.9786 12.7437 14.9636 12.4587 15.0771L7.10171 17.2199C6.69673 17.3806 6.42888 17.777 6.42888 18.2142V27.8567C6.42888 29.0395 7.39099 29.9995 8.57166 29.9995H21.4284C22.6112 29.9995 23.5711 29.0395 23.5711 27.8567V16.0714C23.5711 15.7157 23.3954 15.3835 23.0997 15.1843ZM21.4284 25.7139H8.57166V18.9406L12.8079 17.2456L16.6628 19.172C16.9349 19.307 17.2542 19.3241 17.5392 19.2084L21.4284 17.6528V25.7139Z" fill="#FF005C"/>
<path d="M3.2147 12.8572H1.07192C0.480516 12.8572 0.000534058 13.3372 0.000534058 13.9286C0.000534058 14.52 0.480516 15 1.07192 15H3.2147C3.80611 15 4.28609 14.52 4.28609 13.9286C4.28609 13.3372 3.80611 12.8572 3.2147 12.8572Z" fill="#FF005C"/>
<path d="M3.97325 8.88665L1.83047 6.74173C1.41263 6.32388 0.733367 6.32388 0.315525 6.74173C-0.102317 7.15957 -0.102317 7.83883 0.315525 8.25667L2.4583 10.3995C2.66615 10.6094 2.94043 10.7144 3.21471 10.7144C3.48898 10.7144 3.76326 10.6094 3.97325 10.4016C4.39109 9.98375 4.39109 9.30449 3.97325 8.88665Z" fill="#FF005C"/>
<path d="M3.97325 17.4578C3.55541 17.0399 2.87615 17.0378 2.45616 17.4556L0.313382 19.5984C-0.104461 20.0162 -0.104461 20.6955 0.313382 21.1133C0.523374 21.3233 0.79765 21.4283 1.07193 21.4283C1.3462 21.4283 1.62048 21.3233 1.83047 21.1155L3.97325 18.9727C4.39109 18.5549 4.39109 17.8756 3.97325 17.4578Z" fill="#FF005C"/>
<path d="M28.9281 12.8572H26.7853C26.1939 12.8572 25.7139 13.3372 25.7139 13.9286C25.7139 14.52 26.1939 15 26.7853 15H28.9281C29.5195 15 29.9995 14.52 29.9995 13.9286C29.9995 13.3372 29.5195 12.8572 28.9281 12.8572Z" fill="#FF005C"/>
<path d="M29.6866 6.74392C29.2688 6.32608 28.5895 6.32608 28.1717 6.74392L26.0289 8.8867C25.6111 9.30455 25.6111 9.98381 26.0289 10.4017C26.2367 10.6095 26.511 10.7145 26.7853 10.7145C27.0596 10.7145 27.3339 10.6095 27.5438 10.4017L29.6866 8.25887C30.1045 7.84103 30.1045 7.16177 29.6866 6.74392Z" fill="#FF005C"/>
<path d="M29.6866 19.6005L27.5438 17.4556C27.126 17.0378 26.4467 17.0378 26.0289 17.4556C25.6111 17.8734 25.6111 18.5527 26.0289 18.9705L28.1717 21.1133C28.3795 21.3233 28.6538 21.4283 28.9281 21.4283C29.2024 21.4283 29.4766 21.3233 29.6866 21.1154C30.1045 20.6976 30.1045 20.0183 29.6866 19.6005Z" fill="#FF005C"/>
</g>
<defs>
<clipPath id="clip0_51_614">
<rect width="30" height="30" fill="white"/>
</clipPath>
</defs>
</svg>

<svg width="30" height="30" fill="none" xmlns="http://www.w3.org/2000/svg"><g clip-path="url(#a)" fill="#FF005C"><path d="M21.428 0H8.572C7.39 0 6.429.963 6.429 2.143V13.93a1.074 1.074 0 0 0 1.47.994l4.911-1.965 3.855 1.926c.272.135.591.148.876.037l5.357-2.143c.407-.16.673-.553.673-.992V2.143c0-1.18-.96-2.143-2.143-2.143Zm0 11.062-4.238 1.692-3.853-1.926a1.082 1.082 0 0 0-.878-.037l-3.887 1.556v-8.06h12.856v6.775Z"/><path d="M23.1 15.184c-.294-.199-.669-.24-.999-.107L17.19 17.04l-3.853-1.926a1.082 1.082 0 0 0-.878-.037L7.102 17.22c-.405.16-.673.557-.673.994v9.643C6.429 29.04 7.39 30 8.572 30h12.856c1.183 0 2.143-.96 2.143-2.143V16.07c0-.355-.176-.688-.471-.887Zm-1.672 10.53H8.572V18.94l4.236-1.695 3.855 1.926c.272.135.591.152.876.036l3.89-1.555v8.06ZM3.215 12.857H1.072a1.072 1.072 0 0 0 0 2.143h2.143a1.072 1.072 0 0 0 0-2.143ZM3.973 8.887 1.83 6.742A1.072 1.072 0 0 0 .316 8.257L2.458 10.4a1.076 1.076 0 0 0 1.515.002 1.072 1.072 0 0 0 0-1.515ZM3.973 17.458a1.075 1.075 0 0 0-1.517-.002L.313 19.598a1.072 1.072 0 0 0 1.517 1.518l2.143-2.143a1.072 1.072 0 0 0 0-1.515ZM28.928 12.857h-2.143a1.072 1.072 0 0 0 0 2.143h2.143a1.072 1.072 0 0 0 0-2.143ZM29.687 6.744a1.072 1.072 0 0 0-1.515 0l-2.143 2.143a1.072 1.072 0 0 0 1.515 1.515l2.143-2.143a1.072 1.072 0 0 0 0-1.515ZM29.687 19.6l-2.143-2.144a1.072 1.072 0 0 0-1.515 1.515l2.143 2.142c.207.21.482.315.756.315s.549-.105.759-.313a1.072 1.072 0 0 0 0-1.514Z"/></g><defs><clipPath id="a"><path fill="#fff" d="M0 0h30v30H0z"/></clipPath></defs></svg>
